X:10
T:Egerton! for Ever!
M:6/8
L:1/8
B:WM Cahusac - Twenty Four Country Dances for the Year 1809, No. 10 (London)
N:"With proper Directions to each Dance as they are performed at
N:Court, Bath, and all Public Assemblies."
Z:Transcribed and edited by Flynn Titford-Mock, 2007
Z:abc's:AK/Fiddler's Companion
K:Bb
BcB d2d|cdc f2e|dBF Ggf|ecB AGF|BcB d2d|cdc f2e|dBF Gec|AFA B3:|
|:FGF D2B,|FGF D2B,|BAB cdc|ABG F2D|EGc FAd|GBe Acf|dba gf=e|fgf _edc:||

